X: 9016
T: Da Back
R: reel
M: 4/4
K: Dmajor
e|:fdfd dAFA|Adfd efge|fdfd dAFD|FGE=C EFGA:|
|:d2 FA A/A/A FA|d2 FA AGFE|d2 FA AGFD|FGE=C EFGA:|

